X: 1
T:Entre-deux - bourree
C:Eric Elsener
N:abc transcription Simon Wascher
N:if you find an error in this transcription please inform simon.wascher@chello.at
M:3/8
L:1/16
K:Dm
A2d2A2|B3AG2|A2B2c2|B4G2|
A2d2A2|B3AG2|1A2B2c2|A4D2:|2A4D2|A6||
|:A2GAGF|E3FE2|D2E2F2|E4D2|
A2GAGF|E3FE2|1D3CD2|E6:|2E3FG2|A6||
